!!!OTL: EIN JAEGER  ZOG ZU WALDE
!!!ARE: Europa, Mitteleuropa, Deutschland, Rheinland, Thueringen
!!!SCT: B0596
!!!YEM: Copyright 1995, estate of Helmut Schaffrath.
**kern
*ICvox
*Ivox
*M6/8
*k[f#c#]
*D:
{8a
=1
4a
8f#
4dd
8cc#
=2
4.cc#
4b}
{16g
16e
=3
4d
8A
4f#
8e
=4
4d
4.r}
{8a
=5
4a
8f#
4dd
8cc#
=6
4.cc#
4b}
{16g
16e
=7
4d
8A
4f#
8e
=8
4d
4.r}
{8a
=9
4a
8g
8e
8f#
8g
=10
4a
8f#
4d}
{8dd
=11
4cc#
8b
4a
8g#
=12
4f#
16b
16a
4a}
{8a
=13
4a
8f#
4dd
8cc#
=14
4.cc#
4b}
{16g
16e
=15
4d
8A
4f#
8e
=16
4d
4.r}
==
!!!AGN: Staende -, Jaeger - Lied; Liebe
!!!ONB: ESAC (Essen Associative Code) Database: BOEHME
!!!AMT: compound duple
!!!AIN: vox
!!!EED: Helmut Schaffrath
!!!EEV: 1.0
*-
